X:27
T:Brentford Lasses
M:6/8
L:1/8
B:Thompson's Compleat Collection of 200 Favourite Country Dances, vol. 3 (London, 1773)
Z:Transcribed and edited by Flynn Titford-Mock, 2007
Z:abc's:AK/Fiddler's Companion
K:A
A2f edc | BdB GEG | A2f edc | BAG A3::cec d2d | efg a2a | cec cec | BAG A3 :|
|: A2c e2c | BdB c2A | A2c e2c | BAG A3::B2E d2E | efg a2a | cec cec | BAG A3 :|

